material/.icons/material/undo-variant.svg

<svg xmlns="http://www.w3.org/2000/svg" viewBox="0 0 24 24"><path d="M13.5 7a6.5 6.5 0 016.5 6.5 6.5 6.5 0 01-6.5 6.5H10v-2h3.5c2.5 0 4.5-2 4.5-4.5S16 9 13.5 9H7.83l3.08 3.09L9.5 13.5 4 8l5.5-5.5 1.42 1.41L7.83 7h5.67M6 18h2v2H6v-2z"/></svg>

<?xml version="1.0" encoding="UTF-8"?><!DOCTYPE svg PUBLIC "-//W3C//DTD SVG 1.1//EN" "http://www.w3.org/Graphics/SVG/1.1/DTD/svg11.dtd"><svg xmlns="http://www.w3.org/2000/svg" xmlns:xlink="http://www.w3.org/1999/xlink" version="1.1" id="mdi-undo-variant" width="24" height="24" viewBox="0 0 24 24"><path d="M13.5,7A6.5,6.5 0 0,1 20,13.5A6.5,6.5 0 0,1 13.5,20H10V18H13.5C16,18 18,16 18,13.5C18,11 16,9 13.5,9H7.83L10.91,12.09L9.5,13.5L4,8L9.5,2.5L10.92,3.91L7.83,7H13.5M6,18H8V20H6V18Z" /></svg>
